docroot/modules/custom/liberty_claims/img/icon-continue.svg

<?xml version="1.0" encoding="UTF-8"?>
<svg width="53px" height="60px" viewBox="0 0 53 60" version="1.1" xmlns="http://www.w3.org/2000/svg" xmlns:xlink="http://www.w3.org/1999/xlink">
    <!-- Generator: Sketch 61.2 (89653) - https://sketch.com -->
    <title>Group 34</title>
    <desc>Created with Sketch.</desc>
    <defs>
        <polygon id="path-1" points="0.3099375 0.134808792 10.9514727 0.134808792 10.9514727 13.9419894 0.3099375 13.9419894"></polygon>
    </defs>
    <g id="DSK-Siniestros" stroke="none" stroke-width="1" fill="none" fill-rule="evenodd">
        <g id="9.2-Claims-Third-cases-modal" transform="translate(-657.000000, -1038.000000)">
            <g id="Group-14" transform="translate(386.000000, 943.000000)">
                <g id="Group-34" transform="translate(271.000000, 95.000000)">
                    <g id="noun_Document_2560041">
                        <g id="Group-30">
                            <rect id="Rectangle" fill="#99E5EA" x="7.2" y="8.4" width="24.8823529" height="7.6"></rect>
                            <g id="noun_Document_2560041" fill="#1A1446">
                                <path d="M51.4229508,15.7103109 L41.1855738,15.7103109 L41.1855738,18.5127209 L50.0459016,18.5127209 L50.0459016,52.1896831 C50.0459016,54.3475389 48.7003279,56.1891226 46.8157377,56.8937286 C46.3597377,57.0634746 45.8702951,57.1623596 45.3627541,57.187181 C45.2848525,57.1731689 45.205377,57.16276 45.1231475,57.16276 L44.5691803,57.16276 C43.6579672,57.0586705 42.8183607,56.7047661 42.1298361,56.1610985 C41.3901639,55.5846028 40.8157377,54.7959245 40.4931148,53.8871429 C40.3042623,53.354685 40.2019672,52.7861961 40.2019672,52.1896831 C40.2019672,52.1844787 40.2003934,52.1796745 40.2003934,52.17447 L40.2003934,1.40120504 C40.2003934,0.627339512 39.5838689,0 38.8233443,0 L1.37704918,0 C0.61652459,0 0,0.627339512 0,1.40120504 L0,52.1528515 C0,56.4605561 3.44380328,59.9647697 7.67685246,59.9647697 L44.4314754,59.9647697 C44.6600656,59.9855876 44.8902295,60 45.1239344,60 C45.8439344,60 46.5403279,59.8999139 47.2013115,59.7077487 C47.2013115,59.7077487 47.197377,59.7077487 47.2013115,59.7037452 C50.427541,58.7869568 52.8,55.7643573 52.8,52.1892828 L52.8,17.1111156 C52.8,16.3388514 52.1822951,15.7103109 51.4229508,15.7103109 Z M7.67685246,57.1623596 C4.9624918,57.1623596 2.75409836,54.9152271 2.75409836,52.1528515 L2.75409836,2.80241007 L37.4462951,2.80241007 L37.4462951,52.1904838 C37.4462951,52.198891 37.4486557,52.2060972 37.4486557,52.2145045 C37.4510164,52.9463338 37.5521311,53.6545429 37.7429508,54.3231179 C37.92,54.9756791 38.1836066,55.5922093 38.5180328,56.1606982 C38.7238033,56.5142022 38.959082,56.8472887 39.2152131,57.1623596 L7.67685246,57.1623596 Z" id="Shape" fill-rule="nonzero"></path>
                                <path d="M32.5977922,7.2 L7.00220776,7.2 C6.44858819,7.2 6,7.63766342 6,8.17780031 L6,17.0221997 C6,17.5623366 6.44858819,18 7.00220776,18 L32.5977922,18 C33.1514118,18 33.6,17.5623366 33.6,17.0221997 L33.6,8.17780031 C33.6,7.63766342 33.1514118,7.2 32.5977922,7.2 Z M31.5955845,16.0443994 L8.00441552,16.0443994 L8.00441552,9.15560062 L31.5955845,9.15560062 L31.5955845,16.0443994 Z" id="Shape" fill-rule="nonzero"></path>
                                <path d="M32.5977922,20.4 L7.00220776,20.4 C6.44858819,20.4 6,20.93712 6,21.6 C6,22.26288 6.44858819,22.8 7.00220776,22.8 L32.5977922,22.8 C33.1514118,22.8 33.6,22.26288 33.6,21.6 C33.6,20.93712 33.1514118,20.4 32.5977922,20.4 Z" id="Path"></path>
                                <path d="M32.5977922,27.6 L7.00220776,27.6 C6.44858819,27.6 6,28.13712 6,28.8 C6,29.46288 6.44858819,30 7.00220776,30 L32.5977922,30 C33.1514118,30 33.6,29.46288 33.6,28.8 C33.6,28.13712 33.1514118,27.6 32.5977922,27.6 Z" id="Path"></path>
                                <path d="M32.5977922,34.8 L7.00220776,34.8 C6.44858819,34.8 6,35.33712 6,36 C6,36.66288 6.44858819,37.2 7.00220776,37.2 L32.5977922,37.2 C33.1514118,37.2 33.6,36.66288 33.6,36 C33.6,35.33712 33.1514118,34.8 32.5977922,34.8 Z" id="Path"></path>
                                <path d="M18.2079962,40.8 L6.99200385,40.8 C6.44402092,40.8 6,41.33712 6,42 C6,42.66288 6.44402092,43.2 6.99200385,43.2 L18.2079962,43.2 C18.7559791,43.2 19.2,42.66288 19.2,42 C19.2,41.33712 18.7559791,40.8 18.2079962,40.8 Z" id="Path"></path>
                                <path d="M18.2079962,48 L6.99200385,48 C6.44402092,48 6,48.53712 6,49.2 C6,49.86288 6.44402092,50.4 6.99200385,50.4 L18.2079962,50.4 C18.7559791,50.4 19.2,49.86288 19.2,49.2 C19.2,48.53712 18.7559791,48 18.2079962,48 Z" id="Path"></path>
                                <path d="M31.4634512,42 L23.7365488,42 C23.2191993,42 22.8,42.4297746 22.8,42.9601756 L22.8,49.4398244 C22.8,49.9702254 23.2191993,50.4 23.7365488,50.4 L31.4634512,50.4 C31.9808007,50.4 32.4,49.9702254 32.4,49.4398244 L32.4,42.9601756 C32.4,42.4297746 31.9808007,42 31.4634512,42 Z M30.5269024,48.4796489 L24.6730976,48.4796489 L24.6730976,43.9203511 L30.5269024,43.9203511 L30.5269024,48.4796489 Z" id="Shape" fill-rule="nonzero"></path>
                            </g>
                        </g>
                    </g>
                    <g id="Group-33" transform="translate(10.800000, 36.000000)">
                        <g id="Group-252" transform="translate(0.000000, 0.931768)">
                            <g id="Group-251">
                                <mask id="mask-2" fill="white">
                                    <use xlink:href="#path-1"></use>
                                </mask>
                                <g id="Clip-250"></g>
                            </g>
                        </g>
                    </g>
                </g>
            </g>
        </g>
    </g>
</svg>

<svg xmlns="http://www.w3.org/2000/svg" viewBox="0 0 145 145">
  <g id="Grupo_29807" data-name="Grupo 29807" transform="translate(15361.5 -343.5)">
    <circle id="Oval_2" data-name="Oval 2" cx="71.5" cy="71.5" r="71.5" transform="translate(-15360.5 344.5)" fill="#fff" stroke="#79b530" stroke-width="2"/>
    <g id="DSK-Siniestros" transform="translate(-15315 386)">
      <g id="_9.2-Claims-Third-cases-modal" data-name="9.2-Claims-Third-cases-modal" transform="translate(-657 -1038)">
        <g id="Group-14" transform="translate(386 943)">
          <g id="Group-34" transform="translate(271 95)">
            <g id="noun_Document_2560041">
              <g id="Group-30">
                <g id="noun_Document_2560041-2" data-name="noun_Document_2560041">
                  <path id="Shape" d="M51.423,15.71H41.186v2.8h8.86V52.19a5.012,5.012,0,0,1-3.23,4.7,4.836,4.836,0,0,1-1.453.293,1.349,1.349,0,0,0-.24-.024h-.554a4.811,4.811,0,0,1-2.439-1A5.033,5.033,0,0,1,40.2,52.19c0-.005,0-.01,0-.015V1.4A1.389,1.389,0,0,0,38.823,0H1.377A1.389,1.389,0,0,0,0,1.4V52.153a7.754,7.754,0,0,0,7.677,7.812H44.431c.229.021.459.035.692.035a7.425,7.425,0,0,0,2.077-.292s0,0,0,0a7.792,7.792,0,0,0,5.6-7.514V17.111A1.391,1.391,0,0,0,51.423,15.71ZM7.677,57.162a4.972,4.972,0,0,1-4.923-5.009V2.8H37.446V52.19c0,.008,0,.016,0,.024a7.763,7.763,0,0,0,.294,2.109,7.493,7.493,0,0,0,.775,1.838,7.865,7.865,0,0,0,.7,1Z" fill="#006729"/>
                  <path id="Shape-2" data-name="Shape" d="M32.6,7.2H7a.99.99,0,0,0-1,.978v8.844A.99.99,0,0,0,7,18H32.6a.99.99,0,0,0,1-.978V8.178A.99.99,0,0,0,32.6,7.2Zm-1,8.844H8V9.156H31.6Z" fill="#006729"/>
                  <path id="Path" d="M32.6,20.4H7a1.22,1.22,0,0,0,0,2.4H32.6a1.22,1.22,0,0,0,0-2.4Z" fill="#006729" fill-rule="evenodd"/>
                  <path id="Path-2" data-name="Path" d="M32.6,27.6H7A1.22,1.22,0,0,0,7,30H32.6a1.22,1.22,0,0,0,0-2.4Z" fill="#006729" fill-rule="evenodd"/>
                  <path id="Path-3" data-name="Path" d="M32.6,34.8H7a1.22,1.22,0,0,0,0,2.4H32.6a1.22,1.22,0,0,0,0-2.4Z" fill="#006729" fill-rule="evenodd"/>
                  <path id="Path-4" data-name="Path" d="M18.208,40.8H6.992a1.222,1.222,0,0,0,0,2.4H18.208a1.222,1.222,0,0,0,0-2.4Z" fill="#006729" fill-rule="evenodd"/>
                  <path id="Path-5" data-name="Path" d="M18.208,48H6.992a1.222,1.222,0,0,0,0,2.4H18.208a1.222,1.222,0,0,0,0-2.4Z" fill="#006729" fill-rule="evenodd"/>
                  <path id="Shape-3" data-name="Shape" d="M31.463,42H23.736a.948.948,0,0,0-.937.96v6.48a.948.948,0,0,0,.937.96h7.727a.948.948,0,0,0,.937-.96V42.96A.948.948,0,0,0,31.463,42Zm-.937,6.48H24.673V43.92h5.854Z" fill="#006729"/>
                </g>
              </g>
            </g>
          </g>
        </g>
      </g>
    </g>
  </g>
</svg>
